img/soc_email.svg

<?xml version="1.0" encoding="utf-8"?>
<!-- Generator: Adobe Illustrator 16.0.4, SVG Export Plug-In . SVG Version: 6.00 Build 0)  -->
<!DOCTYPE svg PUBLIC "-//W3C//DTD SVG 1.1//EN" "http://www.w3.org/Graphics/SVG/1.1/DTD/svg11.dtd">
<svg version="1.1" xmlns="http://www.w3.org/2000/svg" xmlns:xlink="http://www.w3.org/1999/xlink" x="0px" y="0px" width="48px"
	 height="102px" viewBox="0 0 48 102" style="enable-background:new 0 0 48 102;" xml:space="preserve">
<style type="text/css">
<![CDATA[
	.st0{fill-rule:evenodd;clip-rule:evenodd;fill:#71117E;}
	.st1{fill:#12A8A5;}
	.st2{fill:#E29A4C;}
	.st3{fill:#E3A730;}
	.st4{fill:#E3F2BF;}
	.st5{fill:#E4F0D7;}
	.st6{fill:#E55F7C;}
	.st7{opacity:0.5;fill:#55ACEE;}
	.st8{fill:#E6E6E6;}
	.st9{fill:#198583;}
	.st10{fill-rule:evenodd;clip-rule:evenodd;fill:none;}
	.st11{fill:#E8C95A;}
	.st12{opacity:0.5;fill:#BC112A;}
	.st13{opacity:0.15;}
	.st14{opacity:0.25;}
	.st15{opacity:0.35;}
	.st16{opacity:0.5;fill:none;stroke:#F3695A;stroke-miterlimit:10;}
	.st17{opacity:0.5;fill:#F3695A;}
	.st18{fill:#EAAF56;}
	.st19{fill:#EB9A2D;}
	.st20{fill:#EBB060;}
	.st21{fill:#EDA44C;}
	.st22{fill:#534E58;}
	.st23{fill:#55ACEE;}
	.st24{opacity:0.2;fill:#EDA44C;stroke:#362B3C;stroke-miterlimit:10;}
	.st25{fill:#575757;}
	.st26{fill:#8B9698;}
	.st27{fill:#58504E;}
	.st28{fill:#8C652F;}
	.st29{fill:#BC112A;}
	.st30{fill:#BD081C;}
	.st31{fill:#8E8A75;}
	.st32{fill:#BEBEBF;}
	.st33{fill:#BF1B3A;}
	.st34{fill:#F19D39;}
	.st35{fill:#238D83;}
	.st36{fill:#F2C549;}
	.st37{fill:#F3695A;}
	.st38{fill:#299488;}
	.st39{fill:#F9B4AC;}
	.st40{fill-rule:evenodd;clip-rule:evenodd;fill:#EDA44C;}
	.st41{opacity:0.5;fill:#9D47B2;}
	.st42{fill:#C1DA84;}
	.st43{fill:#C2BAC4;}
	.st44{opacity:0.5;fill:#32B779;}
	.st45{fill:#2B8F83;}
	.st46{fill:#FBAB01;}
	.st47{fill:#999999;}
	.st48{fill:#FCC457;}
	.st49{fill:none;stroke:#EB9A2D;stroke-width:2;stroke-linecap:round;stroke-linejoin:round;stroke-miterlimit:10;}
	.st50{opacity:0.2;fill:#9D47B2;}
	.st51{fill-rule:evenodd;clip-rule:evenodd;}
	.st52{opacity:0.2;}
	.st53{opacity:0.3;}
	.st54{opacity:0.4;}
	.st55{opacity:0.5;}
	.st56{opacity:0.6;}
	.st57{fill:#615957;}
	.st58{fill:none;stroke:#3E5054;stroke-width:1.2;stroke-miterlimit:10;}
	.st59{fill:#FFDD8B;}
	.st60{fill:#FFFFFF;}
	.st61{fill:none;}
	.st62{fill:none;stroke:#3E5054;stroke-width:1.2;stroke-linecap:round;stroke-linejoin:round;stroke-miterlimit:10;}
	.st63{fill:#9D47B2;}
	.st64{fill:#CCCCCC;}
	.st65{opacity:0.5;fill:#0873B2;}
	.st66{fill:#FFFFFF;stroke:#3E5053;stroke-width:1.4;stroke-miterlimit:10;}
	.st67{fill:#32B779;}
	.st68{fill:#333333;}
	.st69{fill:#362B3C;}
	.st70{opacity:0.6;fill:#EDA44C;}
	.st71{fill-rule:evenodd;clip-rule:evenodd;fill:#FF1550;}
	.st72{fill-rule:evenodd;clip-rule:evenodd;fill:#FFFFFF;}
	.st73{fill-rule:evenodd;clip-rule:evenodd;fill:#643C6B;}
	.st74{fill:#0873B2;}
	.st75{fill-rule:evenodd;clip-rule:evenodd;fill:#9D47B2;}
	.st76{fill:#3E5054;}
	.st77{fill:none;stroke:#EB9A2D;stroke-width:1.6;stroke-miterlimit:10;}
	.st78{fill:#71117E;}
	.st79{fill:#75685E;}
	.st80{fill-rule:evenodd;clip-rule:evenodd;fill:#362B3C;}
	.st81{fill:#DADBD0;}
	.st82{fill:#0D8072;}
	.st83{fill:none;stroke:#FFFFFF;stroke-width:3;stroke-miterlimit:10;}
	.st84{fill:#40413B;}
	.st85{opacity:0.5;fill:none;stroke:#362B3C;stroke-miterlimit:10;}
	.st86{fill:#45D7B0;}
]]>
</style>
<g id="BG">
</g>
<g id="Layer_1">
</g>
<g id="Title">
</g>
<g id="Location">
</g>
<g id="Subtitle">
</g>
<g id="Desc">
	<rect id="_x3C_Slice_x3E__2_" class="st10" width="48" height="102"/>
	<path class="st70" d="M47.949,25.5c-0.084,1.348-0.279,2.663-0.576,3.941c-0.317,1.369-0.747,2.695-1.287,3.965
		C42.427,41.985,33.917,48,24,48S5.572,41.985,1.914,33.405c-0.54-1.269-0.97-2.595-1.287-3.964
		C0.33,28.163,0.135,26.848,0.052,25.5C0.021,25.996,0,26.496,0,27c0,13.256,10.744,24,24,24s24-10.744,24-24
		C48,26.496,47.979,25.996,47.949,25.5z"/>
	<g>
		<path class="st21" d="M24,47.35C11.125,47.35,0.65,36.875,0.65,24S11.125,0.65,24,0.65S47.35,11.125,47.35,24
			S36.875,47.35,24,47.35z M12.35,33c0,0.91,0.74,1.65,1.65,1.65h20c0.91,0,1.65-0.74,1.65-1.65V19.905L24,26.26l-11.65-6.354V33z
			 M14,13.35c-0.91,0-1.65,0.74-1.65,1.65v2.386L24,23.74l11.65-6.354V15c0-0.91-0.74-1.65-1.65-1.65H14z"/>
		<path class="st69" d="M24,1.3c12.517,0,22.7,10.184,22.7,22.7S36.517,46.7,24,46.7S1.3,36.517,1.3,24S11.483,1.3,24,1.3 M24,24.48
			l0.623-0.339l11-6l0.677-0.37V17v-2c0-1.269-1.031-2.3-2.3-2.3H14c-1.269,0-2.3,1.031-2.3,2.3v2v0.771l0.677,0.37l11,6L24,24.48
			 M24,25.52l-10.377-5.661L11.7,18.811V21v12c0,1.269,1.031,2.3,2.3,2.3h20c1.269,0,2.3-1.031,2.3-2.3V21v-2.189l-1.923,1.048
			L24,25.52 M24,0C10.745,0,0,10.745,0,24s10.745,24,24,24s24-10.745,24-24S37.255,0,24,0L24,0z M24,23l-11-6v-2c0-0.55,0.45-1,1-1
			h20c0.55,0,1,0.45,1,1v2L24,23L24,23z M24,27l11-6v12c0,0.55-0.45,1-1,1H14c-0.55,0-1-0.45-1-1V21L24,27L24,27z"/>
	</g>
	<g>
		<g class="st56">
			<path class="st21" d="M24,54C10.745,54,0,64.745,0,78s10.745,24,24,24s24-10.745,24-24S37.255,54,24,54z M35,87
				c0,0.55-0.45,1-1,1H14c-0.55,0-1-0.45-1-1V75l11,6l11-6V87z M35,71l-11,6l-11-6v-2c0-0.55,0.45-1,1-1h20c0.55,0,1,0.45,1,1V71z"
				/>
		</g>
		<g>
			<g>
				<path class="st69" d="M24,51C10.745,51,0,61.745,0,75s10.745,24,24,24s24-10.745,24-24S37.255,51,24,51z M35,84
					c0,0.55-0.45,1-1,1H14c-0.55,0-1-0.45-1-1V72l11,6l11-6V84z M35,68l-11,6l-11-6v-2c0-0.55,0.45-1,1-1h20c0.55,0,1,0.45,1,1V68z"
					/>
			</g>
		</g>
	</g>
</g>
<g id="Layer_7">
</g>
</svg>

<svg xmlns="http://www.w3.org/2000/svg" width="48" height="102" viewBox="0 0 48 102"><defs><style>.a{fill:none;}.b,.c{fill:#eda44c;}.b,.e{opacity:0.6;}.b{isolation:isolate;}.d{fill:#362b3c;}</style></defs><title>soc_email</title><rect class="a" width="48" height="102"/><path class="b" d="M47.949,25.5a23.994,23.994,0,0,1-47.9,0C.021,26,0,26.5,0,27a24,24,0,0,0,48,0C48,26.5,47.979,26,47.949,25.5Z"/><path class="c" d="M24,47.35A23.35,23.35,0,1,1,47.35,24h0A23.377,23.377,0,0,1,24,47.35ZM12.35,33A1.652,1.652,0,0,0,14,34.65H34A1.652,1.652,0,0,0,35.65,33V19.905L24,26.26,12.35,19.906ZM14,13.35A1.652,1.652,0,0,0,12.35,15v2.386L24,23.74l11.65-6.354V15A1.652,1.652,0,0,0,34,13.35Z"/><path class="d" d="M24,1.3A22.7,22.7,0,1,1,1.3,24h0A22.725,22.725,0,0,1,24,1.3m0,23.18.623-.339,11-6,.677-.37V15A2.3,2.3,0,0,0,34,12.7H14A2.3,2.3,0,0,0,11.7,15h0v2.771l.677.37,11,6L24,24.48m0,1.04L13.623,19.859,11.7,18.811V33A2.3,2.3,0,0,0,14,35.3H34A2.3,2.3,0,0,0,36.3,33V18.811l-1.923,1.048L24,25.52M24,0A24,24,0,1,0,48,24,24,24,0,0,0,24,0Zm0,23L13,17V15a1,1,0,0,1,1-1H34a1,1,0,0,1,1,1v2Zm0,4,11-6V33a1,1,0,0,1-1,1H14a1,1,0,0,1-1-1V21Z"/><g class="e"><path class="c" d="M24,54A24,24,0,1,0,48,78,24,24,0,0,0,24,54ZM35,87a1,1,0,0,1-1,1H14a1,1,0,0,1-1-1V75l11,6,11-6Zm0-16L24,77,13,71V69a1,1,0,0,1,1-1H34a1,1,0,0,1,1,1Z"/></g><path class="d" d="M24,51A24,24,0,1,0,48,75,24,24,0,0,0,24,51ZM35,84a1,1,0,0,1-1,1H14a1,1,0,0,1-1-1V72l11,6,11-6Zm0-16L24,74,13,68V66a1,1,0,0,1,1-1H34a1,1,0,0,1,1,1Z"/></svg>
